X:143
T: SCHAETZICHEN WAS MACHEST DU
N: E0729
O: Europa, Mitteleuropa, Deutschland, Hildburghausen
R: Liebes - Lied, Leid, Klage
M: 2/4
L: 1/16
K: F
FGA2cB | A4G4 | F2
FGA2cB | A4G4 | F4z2
FG | A2A2A2GA | B6
EF | G2G2G2FG | A2
FGA2cB | A4G4 | F4z4 | z2

